X:1137
T:The Midnight Hour.
M:6/8
L:1/8
Q:3/8=120
I: :: ::
N:bar 5 printed as |GDG BGc|
Z:Jack Campin * www.campin.me.uk * 2009
K:G
GDG BGB|dBd g3 |d2e dcB|ABG FED|!
GDG BGc|dBd g3 |d2e dcB|AGF G3:|!
gfg efg|abg fed|efg dcB|ABG FED|!
gfg efg|abg fed|cea Bdg|AGF G3:|

